X: 16
T: No_112_You_Make_Me_Drink_Red_Water.krn
N: Derived from No_112_You_Make_Me_Drink_Red_Water.krn
%%abc-version 2.0
%%abcx-abcm2ps-target-version 5.9.1 (29 Sep 2008)
%%abc-creator hum2abc beta
%%abcx-conversion-date 2019/03/15 08:37:56
%%humdrum-veritas 1033328523
%%humdrum-veritas-data 3224528683
%%linebreak <none>
%%barnumbers 0
L: 1/4
M: 3/4
K: E clef=bass
E, [I:setbarnb 1]| 
CCC ||  
[M:2/4]B,B, ||  
[M:3/4]B,3/G,/B, ||  
[M:2/4]G,2 ]|:  
zG, ||  
[M:3/4]B,B,/C/ B,3//G,// | 
G,G,//G,3//F, ||  
[M:2/4]E,F,3//E,// ||  
[M:3/4]E,2B,,/ z/ | 
=G,G,G, | 
F,E,F,/E,/ | 
E,2B,,/ z/ ||  
[M:2/4]F,E,/E,/ | 
E,F,/E,/ ||  
[M:3/4]E,E,E, ||  
[M:2/4]E,B,,/ z/ | 
E,F,/E,/ | 
E,E, ||  
[M:3/4]E,B,,F,/E,/ ||  
[M:2/4]E,E, ||  
[M:3/4]E,3/C,/E, | 
E,3 :|]  



